src/svg/key.svg

<svg height="16" width="14" xmlns="http://www.w3.org/2000/svg" viewBox="0 0 14 16">
  <path d="M12.83 2.17c-0.75-0.75-1.69-1.14-2.83-1.17-1.13 0.03-2.08 0.42-2.83 1.17s-1.13 1.69-1.16 2.83c0 0.3 0.03 0.59 0.09 0.89L0 12v1l1 1h2l1-1v-1h1v-1h1v-1h2l1.09-1.11c0.3 0.08 0.59 0.11 0.91 0.11 1.14-0.03 2.08-0.42 2.83-1.17s1.14-1.69 1.17-2.83c-0.03-1.14-0.42-2.08-1.17-2.83zM11 5.38c-0.77 0-1.38-0.61-1.38-1.38s0.61-1.38 1.38-1.38 1.38 0.61 1.38 1.38-0.61 1.38-1.38 1.38z" />
</svg>

<?xml version="1.0" encoding="UTF-8" standalone="no"?>
<svg width="14px" height="16px" viewBox="0 0 14 16" version="1.1" xmlns="http://www.w3.org/2000/svg" xmlns:xlink="http://www.w3.org/1999/xlink">
    <!-- Generator: Sketch 3.7.1 (28215) - http://www.bohemiancoding.com/sketch -->
    <title>key</title>
    <desc>Created with Sketch.</desc>
    <defs></defs>
    <g id="Octicons" stroke="none" stroke-width="1" fill="none" fill-rule="evenodd">
        <g id="key" fill="#000000">
            <path d="M12.83,2.17 C12.08,1.42 11.14,1.03 10,1 C8.87,1.03 7.92,1.42 7.17,2.17 C6.42,2.92 6.04,3.86 6.01,5 C6.01,5.3 6.04,5.59 6.1,5.89 L0,12 L0,13 L1,14 L3,14 L4,13 L4,12 L5,12 L5,11 L6,11 L6,10 L8,10 L9.09,8.89 C9.39,8.97 9.68,9 10,9 C11.14,8.97 12.08,8.58 12.83,7.83 C13.58,7.08 13.97,6.14 14,5 C13.97,3.86 13.58,2.92 12.83,2.17 L12.83,2.17 Z M11,5.38 C10.23,5.38 9.62,4.77 9.62,4 C9.62,3.23 10.23,2.62 11,2.62 C11.77,2.62 12.38,3.23 12.38,4 C12.38,4.77 11.77,5.38 11,5.38 L11,5.38 Z" id="Shape"></path>
        </g>
    </g>
</svg>
